styles/4/Numix/32/places/green-folder-download.svg

<?xml version="1.0" encoding="UTF-8" standalone="no"?>
<!-- Created with Inkscape (http://www.inkscape.org/) -->

<svg
   xmlns:dc="http://purl.org/dc/elements/1.1/"
   xmlns:cc="http://creativecommons.org/ns#"
   xmlns:rdf="http://www.w3.org/1999/02/22-rdf-syntax-ns#"
   xmlns:svg="http://www.w3.org/2000/svg"
   xmlns="http://www.w3.org/2000/svg"
   xmlns:sodipodi="http://sodipodi.sourceforge.net/DTD/sodipodi-0.dtd"
   xmlns:inkscape="http://www.inkscape.org/namespaces/inkscape"
   width="32"
   height="32"
   id="svg2"
   version="1.1"
   inkscape:version="0.91 r"
   sodipodi:docname="green-folder-download.svg"
   inkscape:export-filename="/media/Data/Main/Visuals/Icons/Numix/Desktop/repos/numix-wiki/Gjorgi/Numix-folders/48/New/folder-144.png"
   inkscape:export-xdpi="270"
   inkscape:export-ydpi="270">
  <defs
     id="defs4" />
  <sodipodi:namedview
     id="base"
     pagecolor="#ffffff"
     bordercolor="#666666"
     borderopacity="1.0"
     inkscape:pageopacity="0.0"
     inkscape:pageshadow="2"
     inkscape:zoom="12.989691"
     inkscape:cx="6.4270531"
     inkscape:cy="11.622029"
     inkscape:document-units="px"
     inkscape:current-layer="layer1"
     showgrid="false"
     inkscape:window-width="1280"
     inkscape:window-height="998"
     inkscape:window-x="0"
     inkscape:window-y="0"
     inkscape:window-maximized="1"
     showguides="true"
     inkscape:guide-bbox="true">
    <inkscape:grid
       type="xygrid"
       id="grid2985"
       empspacing="5"
       visible="true"
       enabled="true"
       snapvisiblegridlinesonly="true" />
  </sodipodi:namedview>
  <metadata
     id="metadata7">
    <rdf:RDF>
      <cc:Work
         rdf:about="">
        <dc:format>image/svg+xml</dc:format>
        <dc:type
           rdf:resource="http://purl.org/dc/dcmitype/StillImage" />
        <dc:title />
      </cc:Work>
    </rdf:RDF>
  </metadata>
  <g
     inkscape:label="Layer 1"
     inkscape:groupmode="layer"
     id="layer1"
     transform="translate(0,-1020.3622)">
    <path
       style="fill:#388e3c;fill-opacity:1;stroke:none"
       d="m 4,1025.3622 23.5,0 c 1,0 1.5,0.4999 1.5,1.4996 l 0,3.4991 c 0,0.5538 -0.4737,0.4998 -1,0.4998 l -24,0 c -0.5263,0 -1,-0.4459 -1,-0.9997 l 0,-4.4988 z"
       id="path3811"
       inkscape:connector-curvature="0"
       sodipodi:nodetypes="csssssscc" />
    <path
       style="opacity:0.02999998;fill:#000000;fill-opacity:1;stroke:none"
       d="m 3,1028.3622 0,2.5 26,0 0,-2.5 z"
       id="path3807"
       inkscape:connector-curvature="0" />
    <path
       style="fill:#388e3c;fill-opacity:1;stroke:none"
       d="m 3,1027.3622 0,-2.5 c 0,-1 0.4545455,-1.5 0.9090909,-1.5 l 5.1818181,0 c 0.454546,0 0.909091,0.5 0.909091,1.5 l 0,2.5 z"
       id="rect3760"
       inkscape:connector-curvature="0"
       sodipodi:nodetypes="csssscc" />
    <rect
       style="fill:#66bb6a;fill-opacity:1;stroke:none"
       id="rect2990"
       width="30"
       height="20"
       x="1"
       y="1029.3622"
       rx="2"
       ry="1.6666666" />
    <path
       style="opacity:0.1;fill:#ffffff;fill-opacity:1;stroke:none"
       d="m 3,1029.3622 c -1.108,0 -2,0.7485 -2,1.6719 l 0,1 c 0,-0.9234 0.892,-1.6719 2,-1.6719 l 26,0 c 1.108,0 2,0.7485 2,1.6719 l 0,-1 c 0,-0.9234 -0.892,-1.6719 -2,-1.6719 l -26,0 z"
       id="rect3004"
       inkscape:connector-curvature="0" />
    <path
       style="opacity:0.05;fill:#000000;fill-opacity:1;stroke:none"
       d="m 10,1025.3622 0,1 1,0 16.5,0 c 1,0 1.5,0.5002 1.5,1.5 l 0,-1 c 0,-0.9997 -0.5,-1.5 -1.5,-1.5 l -16.5,0 z"
       id="path3781"
       inkscape:connector-curvature="0"
       sodipodi:nodetypes="cccscsscc" />
    <path
       style="opacity:0.05;fill:#000000;fill-opacity:1;stroke:none"
       d="m 3.90625,1023.3622 c -0.4545454,0 -0.90625,0.5 -0.90625,1.5 l 0,1 c 0,-1 0.4517046,-1.5 0.90625,-1.5 l 5.1875,0 c 0.454546,0 0.90625,0.5 0.90625,1.5 l 0,-1 c 0,-1 -0.451704,-1.5 -0.90625,-1.5 l -5.1875,0 z"
       id="path3801"
       inkscape:connector-curvature="0" />
    <path
       style="opacity:1.0;fill:#448647;fill-opacity:1;stroke:none"
       d="M 16 13 C 15.446 13 15 13.446 15 14 L 15 19 L 13 19 C 12 19 12 19 13 20 L 15 22 C 16 23 16 23 17 22 L 19 20 C 20 19 20 19 19 19 L 17 19 L 17 14 C 17 13.446 16.554 13 16 13 z M 9.96875 20 C 9.4344431 20 9 20.446 9 21 L 9 24.9375 L 9 25 L 9 25.0625 C 9 25.099036 9.0270869 25.120807 9.03125 25.15625 C 9.0461095 25.246873 9.0571815 25.325799 9.09375 25.40625 C 9.1945779 25.628073 9.3750493 25.810656 9.59375 25.90625 C 9.6947752 25.951606 9.7898768 25.989113 9.90625 26 C 9.9390644 26.00307 9.9663108 26 10 26 L 10.03125 26 L 21.96875 26 L 22 26 C 22.01123 26 22.020112 26.000346 22.03125 26 C 22.052203 26 22.073137 26.001351 22.09375 26 C 22.210123 25.989113 22.305225 25.951606 22.40625 25.90625 C 22.521713 25.855781 22.631588 25.809125 22.71875 25.71875 C 22.809125 25.632658 22.855781 25.520295 22.90625 25.40625 C 22.942819 25.325799 22.953891 25.246873 22.96875 25.15625 C 22.974304 25.122379 22.997796 25.097463 23 25.0625 L 23 24.9375 L 23 21 C 23 20.446 22.565557 20 22.03125 20 L 21.96875 20 C 21.434443 20 21 20.446 21 21 L 21 24 L 11 24 L 11 21 C 11 20.446 10.565557 20 10.03125 20 L 9.96875 20 z "
       transform="translate(0,1020.3622)"
       id="rect2989-0" />
  </g>
</svg>

<!-- Created with Inkscape (http://www.inkscape.org/) -->
<svg xmlns="http://www.w3.org/2000/svg" viewBox="0 0 32 32">
 <g transform="translate(0,-1020.3622)">
  <path d="m 4 1025.36 23.5 0 c 1 0 1.5 0.5 1.5 1.5 l 0 3.499 c 0 0.554 -0.474 0.5 -1 0.5 l -24 0 c -0.526 0 -1 -0.446 -1 -1 l 0 -4.499 z" style="fill:#388e3c;fill-opacity:1;stroke:none"/>
  <path d="m 3 1028.36 0 2.5 26 0 0 -2.5 z" style="fill:#000;opacity:0.03;fill-opacity:1;stroke:none"/>
  <path d="m 3 1027.36 0 -2.5 c 0 -1 0.455 -1.5 0.909 -1.5 l 5.182 0 c 0.455 0 0.909 0.5 0.909 1.5 l 0 2.5 z" style="fill:#388e3c;fill-opacity:1;stroke:none"/>
  <rect width="30" height="20" x="1" y="1029.36" rx="2" ry="1.667" style="fill:#66bb6a;fill-opacity:1;stroke:none"/>
  <path d="m 3 1029.36 c -1.108 0 -2 0.748 -2 1.672 l 0 1 c 0 -0.923 0.892 -1.672 2 -1.672 l 26 0 c 1.108 0 2 0.748 2 1.672 l 0 -1 c 0 -0.923 -0.892 -1.672 -2 -1.672 l -26 0 z" style="fill:#fff;opacity:0.1;fill-opacity:1;stroke:none"/>
  <path d="m 10 1025.36 0 1 1 0 16.5 0 c 1 0 1.5 0.5 1.5 1.5 l 0 -1 c 0 -1 -0.5 -1.5 -1.5 -1.5 l -16.5 0 z" style="fill:#000;opacity:0.05;fill-opacity:1;stroke:none"/>
  <path d="m 3.906 1023.36 c -0.455 0 -0.906 0.5 -0.906 1.5 l 0 1 c 0 -1 0.452 -1.5 0.906 -1.5 l 5.188 0 c 0.455 0 0.906 0.5 0.906 1.5 l 0 -1 c 0 -1 -0.452 -1.5 -0.906 -1.5 l -5.188 0 z" style="fill:#000;opacity:0.05;fill-opacity:1;stroke:none"/>
  <path d="m 16 13 c -0.554 0 -1 0.446 -1 1 l 0 5 l -2 0 c -1 0 -1 0 0 1 l 2 2 c 1 1 1 1 2 0 l 2 -2 c 1 -1 1 -1 0 -1 l -2 0 l 0 -5 c 0 -0.554 -0.446 -1 -1 -1 z m -6.03 7 c -0.534 0 -0.969 0.446 -0.969 1 l 0 3.938 l 0 0.063 l 0 0.063 c 0 0.037 0.027 0.058 0.031 0.094 c 0.015 0.091 0.026 0.17 0.063 0.25 c 0.101 0.222 0.281 0.404 0.5 0.5 c 0.101 0.045 0.196 0.083 0.313 0.094 c 0.033 0.003 0.06 0 0.094 0 l 0.031 0 l 11.938 0 l 0.031 0 c 0.011 0 0.02 0 0.031 0 c 0.021 0 0.042 0.001 0.063 0 c 0.116 -0.011 0.211 -0.048 0.313 -0.094 c 0.115 -0.05 0.225 -0.097 0.313 -0.188 c 0.09 -0.086 0.137 -0.198 0.188 -0.313 c 0.037 -0.08 0.048 -0.159 0.063 -0.25 c 0.006 -0.034 0.029 -0.059 0.031 -0.094 l 0 -0.125 l 0 -3.938 c 0 -0.554 -0.434 -1 -0.969 -1 l -0.063 0 c -0.534 0 -0.969 0.446 -0.969 1 l 0 3 l -10 0 l 0 -3 c 0 -0.554 -0.434 -1 -0.969 -1 l -0.063 0 z" transform="translate(0,1020.3622)" style="fill:#448647;opacity:1;fill-opacity:1;stroke:none"/>
 </g>
</svg>
